svg/arrange_bring_forward.svg

<svg xmlns="http://www.w3.org/2000/svg" viewBox="0 0 24 24"><path d="M2 2h14v14H2zm20 6v14H8v-4h2v2h10V10h-2V8z"/></svg>

<?xml version="1.0" encoding="UTF-8"?><!DOCTYPE svg PUBLIC "-//W3C//DTD SVG 1.1//EN" "http://www.w3.org/Graphics/SVG/1.1/DTD/svg11.dtd"><svg xmlns="http://www.w3.org/2000/svg" xmlns:xlink="http://www.w3.org/1999/xlink" version="1.1" id="mdi-arrange-bring-forward" width="24" height="24" viewBox="0 0 24 24"><path d="M2,2H16V16H2V2M22,8V22H8V18H10V20H20V10H18V8H22Z" /></svg>
